X: 276
T: Koce Berberot
O: Macedonia
F: http://www.youtube.com/watch?v=35AQCtUQi1E
F: http://www.youtube.com/watch?v=mJsrPdg-QtQ
F: http://www.youtube.com/watch?v=BiPZoHLMixI
M: 2/4
L: 1/16
Q: 1/4=96
K: Am
%%MIDI gchord IzGz
"Am"EAEA AGFE |EDCB, A,4|"Dm"G,CB,C DB,CD|[1DB,CD "Am"E4:|[2 DB,CD "Am"A,4|:
"Am"A2z2 E2z2|CB,CB, A,2z2|"D7"G,2C2B,2C2|[1D4z4:|[2"Am"A,4z4|:
"Am"E2E2 E2E2|EDCB, A,2z2|"D7"G,2C2B,2C2|[1D4z4:|[2"Am"A,4z4|



